src/assets/icons/youtube.svg

<svg width="41" height="41" viewBox="0 0 41 41" xmlns="http://www.w3.org/2000/svg">
  <path
    d="M39.6651 10.6044C39.2038 8.86882 37.849 7.50668 36.128 7.04531C33.0082 6.20312 20.5 6.20312 20.5 6.20312C20.5 6.20312 7.99176 6.20312 4.87203 7.04531C3.15104 7.50668 1.79623 8.86882 1.33486 10.6044C0.5 13.7462 0.5 20.2932 0.5 20.2932C0.5 20.2932 0.5 26.8403 1.33486 29.982C1.79623 31.7176 3.15104 33.0211 4.87203 33.4825C7.99176 34.3247 20.5 34.3247 20.5 34.3247C20.5 34.3247 33.0082 34.3247 36.128 33.4825C37.849 33.0211 39.2038 31.7103 39.6651 29.982C40.5 26.8403 40.5 20.2932 40.5 20.2932C40.5 20.2932 40.5 13.7462 39.6651 10.6044ZM16.4136 26.2397V14.3467L26.864 20.2932L16.4136 26.2397Z" />
</svg>

<svg xmlns="http://www.w3.org/2000/svg" width="40" height="40">
  <path fill="currentColor" d="M39.665 10.604a5.02 5.02 0 0 0-3.537-3.559c-3.12-.842-15.628-.842-15.628-.842s-12.508 0-15.628.842a5.02 5.02 0 0 0-3.537 3.56C.5 13.745.5 20.292.5 20.292s0 6.547.835 9.689c.461 1.736 1.816 3.04 3.537 3.5 3.12.843 15.628.843 15.628.843s12.508 0 15.628-.843c1.721-.46 3.076-1.772 3.537-3.5.835-3.142.835-9.689.835-9.689s0-6.547-.835-9.689ZM16.414 26.24V14.347l10.45 5.946-10.45 5.947Z"/>
</svg>
